packages/react-icons/icons/delete.svg

<svg width="24" height="24" viewBox="0 0 24 24" xmlns="http://www.w3.org/2000/svg"><path fill-rule="evenodd" clip-rule="evenodd" d="M5.67127 6.94406C4.5628 8.32976 3.89998 10.0875 3.89998 12C3.89998 13.9125 4.5628 15.6702 5.67127 17.0559L10.7272 12L5.67127 6.94406ZM6.94406 5.67127L12 10.7272L17.0559 5.67127C15.6702 4.5628 13.9125 3.89998 12 3.89998C10.0875 3.89998 8.32976 4.5628 6.94406 5.67127ZM12 13.2728L6.94406 18.3287C8.32976 19.4372 10.0875 20.1 12 20.1C13.9125 20.1 15.6702 19.4372 17.0559 18.3287L12 13.2728ZM18.3287 17.0559L13.2728 12L18.3287 6.94406C19.4371 8.32976 20.1 10.0875 20.1 12C20.1 13.9125 19.4372 15.6702 18.3287 17.0559ZM2.09998 12C2.09998 6.53236 6.53236 2.09998 12 2.09998C17.4676 2.09998 21.9 6.53236 21.9 12C21.9 17.4676 17.4676 21.9 12 21.9C6.53236 21.9 2.09998 17.4676 2.09998 12Z"/></svg>

<svg xmlns="http://www.w3.org/2000/svg" width="24" height="24"><path fill-rule="evenodd" d="M5.671 6.944A8.066 8.066 0 0 0 3.9 12c0 1.912.663 3.67 1.771 5.056L10.727 12 5.671 6.944Zm1.273-1.273L12 10.727l5.056-5.056A8.066 8.066 0 0 0 12 3.9c-1.912 0-3.67.663-5.056 1.771ZM12 13.273l-5.056 5.056A8.066 8.066 0 0 0 12 20.1c1.912 0 3.67-.663 5.056-1.771L12 13.273Zm6.329 3.783L13.273 12l5.056-5.056A8.066 8.066 0 0 1 20.1 12c0 1.912-.663 3.67-1.771 5.056ZM2.1 12c0-5.468 4.432-9.9 9.9-9.9s9.9 4.432 9.9 9.9-4.432 9.9-9.9 9.9-9.9-4.432-9.9-9.9Z" clip-rule="evenodd"/></svg>
